X: 6182
T: Caracena
R: jig
M: 6/8
K: Gmajor
GBd gfd|cd Bc AB|GBd gfd|efg abc'|
bc'b agf|gfd ecA|Bcd efg|BcA G3:|
d^cd efg|afd bgd|afd ^cde|fAA AB^c|
dAA eAA|fAA gfg|aba gfe|fdd d^cB|
AB^c de/f/g|afd bgd|afd ^cde|fAA AB^c|
dAA eAA|fAA gfg|abc' bag|fed cBA|

